X:44
T:Baker's Buck
M:2/4
Q:1/4=100
L:1/8
K:G
%%MIDI channel 1
%%MIDI program 72
%%MIDI transpose 8
%%MIDI grace 1/8
%%MIDI ratio 3 1
G>B dd|c/B/A d2|G>B dd|c/B/A G/F/E/D/|G>B dd|c/B/A d2|G>B dd|ef g2::
Be e/d/e/f/|gf e>B|Ad d/c/d/e/|fe d>c|Be e/d/e/f/|gfe g/a/|bLa gLf|[1 eLd BLA:|[2 e/d/e/f/ g2|]

